X: 3076
T: MISS WRIGHT
Q:"Reel."
R: Reel.
%R:reel
B: James Kerr "Merry Melodies" v.3 p.10 #76
Z: 2016 John Chambers <jc:trillian.mit.edu>
M: C
L: 1/8
K: Em
uB |\
G>E E/E/E E2EF | GEGB eBGE |\
F>D D/D/D D2DE |[1 FDFA dAFD :|[2 FAd^c BAGA |]
|:\
(Be)ee (ge)ee | (be)ee (ge)ee |\
[1 (fd)dd (Ad)dd | FGEF D2d2 :|\
[2 fgef d2(d^c) | BAGF E3 |]

%%sep 1 1 500
%%sep 1 1 500

